X: 17131
T: Helen Robertson
R: waltz
M: 3/4
K: Gmajor
|:d2|B3 A G2|B4 AG|G2 E2 G2|E2 D3 D|D2 E2 G2|B4 AB|d2 d2 B2|A4 d2|
B3 A G2|B3 A G2|G2 E2 G2|E2 D4|B,4 DB,|C4 B,A,|D2 A2 F2|G4:|
|:B,>A,|G,4 DC|B,4 CD|E2 G3 E|E2 D3 D|D2 E2 G2|B4 AB|d2 d2 B2|A4 d2|
B3 A G2|B3 A G2|G2 E2 G2|E2 D4|B,4 DB,|C4 B,A,|D2 A2 F2|G4:|

